X:1
T:Gale Force
C:Paul S. Cranford
R:Strathspey
M:C
L:1/8
%%printtempo 0
Q:120
K:Em
"Em"D<EE>D F<EE2| "D"A<BB>A "Bm"d<BB>d| "Em"e<dd>B "D"A<FF>d| "Bm"F<EE>D "Em"F<E E2|
"Em"D<EE>D F<EE2| "D"A<BB>A "Bm"d<BB>d| "Em"e<dd>B "D"A<FF>d| "Bm"F<EE>D "Em"F<E E2||
"Em"e<BB>g "A7"e<Bg2| "D"a<ff>a "Bm"e<dB2| "C"e<Bg>e "Am"d<Be>d| "Am/C"B>A"B7"Ad "Em"F<E E2|
"Em"e<BB>g "A7"e<Bg2| "D"a<ff>a "Bm"e<dB2| "C"e<Bg>e "Am"d<Be>d| "Am/C"B>A"B7"Ad "Em"F<E |]
